svg/vip.svg

<?xml version="1.0" encoding="UTF-8"?>
<svg xmlns="http://www.w3.org/2000/svg" xmlns:xlink="http://www.w3.org/1999/xlink" width="32" height="32" viewBox="0 0 32 32">
<path fill-rule="nonzero" fill="rgb(0%, 0%, 0%)" fill-opacity="1" d="M 3.199219 4.480469 C 1.433594 4.480469 0 5.914062 0 7.679688 L 0 24.320312 C 0 26.085938 1.433594 27.519531 3.199219 27.519531 L 28.800781 27.519531 C 30.566406 27.519531 32 26.085938 32 24.320312 L 32 7.679688 C 32 5.914062 30.566406 4.480469 28.800781 4.480469 Z M 5.121094 11.519531 L 6.398438 11.519531 L 9.160156 19.898438 L 12.160156 11.519531 L 13.441406 11.519531 L 9.859375 21.121094 L 8.441406 21.121094 Z M 15.359375 11.519531 L 16.640625 11.519531 L 16.640625 21.121094 L 15.359375 21.121094 Z M 19.839844 11.519531 L 23.878906 11.519531 C 24.773438 11.519531 25.46875 11.773438 25.980469 12.21875 C 26.425781 12.667969 26.820312 13.527344 26.820312 14.359375 C 26.820312 15.191406 26.488281 16.132812 26.039062 16.578125 C 25.59375 17.027344 24.898438 17.28125 23.941406 17.28125 L 21.121094 17.28125 L 21.121094 21.121094 L 19.839844 21.121094 Z M 21.121094 12.800781 L 21.121094 16 L 23.480469 16 C 23.480469 16 25.621094 16.179688 25.621094 14.421875 C 25.621094 12.660156 23.480469 12.800781 23.480469 12.800781 Z M 21.121094 12.800781 "/>
</svg>

<svg role="img" viewBox="0 0 32 32" height="32" width="32" xmlns="http://www.w3.org/2000/svg"><path d="M3.2 4.48A3.2 3.2 0 0 0 0 7.68v16.64a3.2 3.2 0 0 0 3.2 3.2h25.6a3.2 3.2 0 0 0 3.2-3.2V7.68a3.2 3.2 0 0 0-3.2-3.2Zm1.921 7.04h1.277l2.762 8.378 3-8.378h1.281l-3.581 9.6H8.441Zm10.238 0h1.282v9.601h-1.282Zm4.48 0h4.04c.894 0 1.59.253 2.101.699.446.449.84 1.308.84 2.14 0 .832-.332 1.774-.78 2.22-.446.448-1.142.702-2.099.702h-2.82v3.84H19.84Zm1.282 1.28V16h2.36s2.14.18 2.14-1.578c0-1.762-2.14-1.621-2.14-1.621Zm0 0"/></svg>
